X: 09113
T: TIMMY'S TUNE
C: Bob McQuillen 26 Feb 1992
B: Bob's Note Book 9 p.113
R: reelz
Z: 2017 John Chambers <jc:trillian.mit.edu>
L: 1/8
M: C
K: D
fe |\
d2FA BAFA | dfec d2AG | FAdf gfed | BdAF EGFE |
D2FA BAFA | defg a2ag | fdBd Aceg | f2d2 d2 :|
|: fe |\
d2df afde | fafd edBA | d2df afde | fafd e2fg |
a2af gfef | gfed c2A2 | defa gecd | e2d2 d2 :|
%%begintext align
%% Timmy Buick is
%% Johnny Brennan's 7 year-old nephew (They're from
%% down Philly way) and he's just getting started on the
%% fiddle, with Johnny doing the teaching. I can't wait
%% for the day when he can play this tune! Hope it comes
%% soon, Timmy!
%%endtext

%%sep 1 1 500

%%sep 1 1 500

